X:1
T:Adwell, LM
T:Adwell, LM
T:Lowell Mason, 1844
T:Public Domain Courtesy of the Cyber Hymnal™
C:Lowell Mason, 1844
Z:Public Domain
Z:Courtesy of the Cyber Hymnal™
%%score ( 1 2 ) ( 3 4 )
L:1/8
Q:1/4=130
M:4/4
K:C
V:1 treble 
V:2 treble 
V:3 bass 
V:4 bass 
V:1
 [CE]4 [CE]2 [CE]2 | [CE]6 [EA]2 | [EA]4 [E^G]4 | [EA]8 | [^FA]4 [FA]2 [FA]2 | [GB]4 [^FA]4 | %6
 [EG]4 [^D^F]4 x2 | E8 | [CE]4 [EA]2 [E^G]2 | [EA]6 [EB]2 | [Ec]4 [Ad]4 | [^Ge]2 E2 E2 E2 | %12
 z2 B2 B2 B2 | [Ec]4 ([Ee]2 [Fd]2) | c4 z2 x6 | [CA]8 |] %16
V:2
 x8 | x8 | x8 | x8 | x8 | x8 | x10 | E8 | x8 | x8 | x8 | x8 | E8- | x8 | E6 (B4 D2) | x8 |] %16
V:3
 [G,,C,]4 [G,,C,]2 [G,,C,]2 | [G,,C,]6 [A,,C,]2 | [C,E,]4 [B,,E,]4 | [A,,C,]8 | D,4 D,2 D,2 | %5
 [G,,D,]4 [A,,C,]4 | B,,6 z2 A,,2 | [G,,E,]8 | A,,4 [A,,C,]2 [B,,D,]2 | [A,,C,]6 [^G,,E,]2 | %10
 [A,,A,]4 [A,,F,]4 | [B,,E,]2 z2 z4 | z2 [^G,,E,]2 [G,,E,]2 [G,,E,]2 | [A,,A,]4 (C,2 D,2) | %14
 [A,,E,]4 [^G,,E,]4 x4 | A,,8 |] %16
V:4
 x8 | x8 | x8 | x8 | D,4 D,2 D,2 | x8 | B,,4 B,,4 x2 | x8 | A,,4 x4 | x8 | x8 | x8 | x8 | x4 A,,4 | %14
 x12 | A,,8 |] %16

